svgs/duotone/table-cells.svg

<svg xmlns="http://www.w3.org/2000/svg" viewBox="0 0 512 512"><!--! Font Awesome Pro 6.5.1 by @fontawesome - https://fontawesome.com License - https://fontawesome.com/license (Commercial License) Copyright 2023 Fonticons, Inc. --><defs><style>.fa-secondary{opacity:.4}</style></defs><path class="fa-secondary" d="M144 160V96h64v64h96V96h64v64h80v64H368v64h80v64H368v64H304V352H208v64H144V352H64V288h80V224H64V160h80zm64 64v64h96V224H208z"/><path class="fa-primary" d="M64 32C28.7 32 0 60.7 0 96V416c0 35.3 28.7 64 64 64H448c35.3 0 64-28.7 64-64V96c0-35.3-28.7-64-64-64H64zM448 96V416H64V96H448z"/></svg>

<svg xmlns="http://www.w3.org/2000/svg" viewBox="0 0 512 512"><!--! Font Awesome Pro 6.1.1 by @fontawesome - https://fontawesome.com License - https://fontawesome.com/license (Commercial License) Copyright 2022 Fonticons, Inc. --><defs><style>.fa-secondary{opacity:.4}</style></defs><path class="fa-primary" d="M448 32C483.3 32 512 60.65 512 96V416C512 451.3 483.3 480 448 480H64C28.65 480 0 451.3 0 416V96C0 60.65 28.65 32 64 32H448zM448 96H64V416H448V96z"/><path class="fa-secondary" d="M144 160V96H208V160H304V96H368V160H448V224H368V288H448V352H368V416H304V352H208V416H144V352H64V288H144V224H64V160H144zM208 224V288H304V224H208z"/></svg>
